images/footer/instagram.svg

<svg height="512pt" viewBox="0 0 512 512" width="512pt" xmlns="http://www.w3.org/2000/svg"><path d="m256 120.5c-74.714844 0-135.5 60.785156-135.5 135.5s60.785156 135.5 135.5 135.5 135.5-60.785156 135.5-135.5-60.785156-135.5-135.5-135.5zm0 241c-58.171875 0-105.5-47.328125-105.5-105.5s47.328125-105.5 105.5-105.5c58.175781 0 105.5 47.328125 105.5 105.5s-47.324219 105.5-105.5 105.5zm0 0"/><path d="m460.410156 51.589844c-33.265625-33.269532-77.332031-51.589844-124.074218-51.589844h-160.671876c-46.742187 0-90.808593 18.320312-124.074218 51.589844-33.269532 33.265625-51.589844 77.332031-51.589844 124.074218v160.667969c0 46.746094 18.320312 90.8125 51.589844 124.078125 33.265625 33.269532 77.332031 51.589844 124.074218 51.589844h160.671876c46.742187 0 90.808593-18.320312 124.074218-51.589844 33.269532-33.265625 51.589844-77.332031 51.589844-124.078125v-160.667969c0-46.742187-18.320312-90.808593-51.589844-124.074218zm21.589844 284.742187c0 80.320313-65.347656 145.667969-145.664062 145.667969h-160.671876c-80.316406 0-145.664062-65.347656-145.664062-145.667969v-160.667969c0-80.316406 65.347656-145.664062 145.664062-145.664062h160.671876c80.316406 0 145.664062 65.347656 145.664062 145.664062zm0 0"/><path d="m395.511719 101.488281c-3.953125 0-7.820313 1.609375-10.613281 4.402344-2.789063 2.789063-4.386719 6.660156-4.386719 10.597656 0 3.949219 1.597656 7.820313 4.386719 10.609375 2.792968 2.792969 6.660156 4.390625 10.613281 4.390625 3.9375 0 7.808593-1.597656 10.597656-4.390625 2.789063-2.789062 4.402344-6.660156 4.402344-10.609375 0-3.9375-1.613281-7.808593-4.402344-10.597656s-6.660156-4.402344-10.597656-4.402344zm0 0"/></svg>

<svg height="512pt" viewBox="0 0 512 512" width="512pt" xmlns="http://www.w3.org/2000/svg"><path d="M256 120.5c-74.715 0-135.5 60.785-135.5 135.5S181.285 391.5 256 391.5 391.5 330.715 391.5 256 330.715 120.5 256 120.5zm0 241c-58.172 0-105.5-47.328-105.5-105.5S197.828 150.5 256 150.5c58.176 0 105.5 47.328 105.5 105.5S314.176 361.5 256 361.5zm0 0"/><path d="M460.41 51.59C427.145 18.32 383.078 0 336.336 0H175.664C128.922 0 84.855 18.32 51.59 51.59 18.32 84.855 0 128.922 0 175.664v160.668c0 46.746 18.32 90.813 51.59 124.078C84.855 493.68 128.922 512 175.664 512h160.672c46.742 0 90.809-18.32 124.074-51.59C493.68 427.145 512 383.078 512 336.332V175.664c0-46.742-18.32-90.809-51.59-124.074zM482 336.332C482 416.652 416.652 482 336.336 482H175.664C95.348 482 30 416.652 30 336.332V175.664C30 95.348 95.348 30 175.664 30h160.672C416.652 30 482 95.348 482 175.664zm0 0"/><path d="M395.512 101.488c-3.953 0-7.82 1.61-10.614 4.403a15.104 15.104 0 00-4.386 10.597c0 3.95 1.597 7.82 4.386 10.61a15.107 15.107 0 0010.614 4.39 15.09 15.09 0 0010.597-4.39c2.79-2.79 4.403-6.66 4.403-10.61 0-3.937-1.614-7.808-4.403-10.597s-6.66-4.403-10.597-4.403zm0 0"/></svg>
